X: 35732
T: Saint Stephen's
R: reel
M: 4/4
K: Dmajor
d2BA FAAF|BAEF DE(3FED|EFFd ABBf|edBA FEFA|
d2BA FAAF|BAEF DE(3FED|EFFd ABBf|1 edBA BFAB:|2 edBA B2(3ABd||
|:g2fe fBBA|ecBA dBBA|EFFd ABBg|fedB e2(3ABd|
g2fe fBBA|ecBA dBBA|EFFd ABBf|edBA BFAB:|

